!!!COM: Grieg, Edvard
!!!CDT: 1843/06/15/-1907/09/04/
!!!OPR: Norwegian Folksongs, Op. 66
!!!OPS: Op. 66
!!!ONM: No. 6
!!!OTL: Lullaby
!!!ODT: 1896///
!!!OMD: Allegretto con moto
**kern	**kern	**dynam
*staff2	*staff1	*staff1/2
*clefF4	*clefG2	*clefG2
*k[]	*k[]	*k[]
*M2/4	*M2/4	*M2/4
*MM80	*MM80	*MM80
=1-	=1-	=1-
2r	4ee/	p
.	16dd/LL	.
.	16cc/	.
.	16b/	.
.	16cc/JJ	.
=2	=2	=2
*	*^	*
4e\	4.a/	2f\	.
4e-\	.	.	.
.	16b/LL	.	.
.	16cc/JJ	.	.
=3	=3	=3	=3
4d\	8a/L	4f\	<
.	16b/L	.	.
.	16cc/JJ	.	.
4d-\	8a/L	4f\	.
.	16b/L	.	.
.	16cc/JJ	.	>
=4	=4	=4	=4
2c\	4a/	8f\L	.
.	.	8e\	.
.	16b/LL	8d#\	.
.	16a/	.	.
.	16g#/	8e\J	.
.	16a/JJ	.	.
*	*v	*v	*
=5	=5	=5
2B;\ 2d#;\	2f#;/ 2b;/	.
=6	=6	=6
*	*^	*
8AA'\ 8F'\L	16b/LL	4g#\	.
.	16cc/	.	.
8F'\ 8dn'\J	16dd/	.	.
.	16b/JJ	.	.
8AA'\ 8F'\L	16dd/LL	4g#\	.
.	16cc/	.	.
8F'\ 8d'\J	16b/	.	.
.	16a/JJ	.	.
=7	=7	=7	=7
8AA'\ 8D#'\L	16b/LL	4d#\	.
.	16a/	.	.
8D#'\ 8c'\J	16a/	.	.
.	16g#/JJ	.	.
8AA'\ 8E'\L	4e^/	4e^\	.
8E'\ 8c'\J	.	.	.
=8	=8	=8	=8
8AA'\ 8F'\L	16b/LL	4g#\	.
.	16cc/	.	.
8F'\ 8dn'\J	16dd/	.	.
.	16b/JJ	.	.
*	*v	*v	*
.	(ddq/	.
*	*^	*
8AA'\ 8F'\L	8cc'/L)	4g#\	.
8F'\ 8d'\J	16b/L	.	.
.	16b/JJ	.	.
*	*v	*v	*
=9	=9	=9
8AA'\ 8D#'\L	8d#/ 8a/	.
8D#'\ 8c'\J	8r	.
8AA'\ 8E'\L	4e/ 4a/	.
8E'\ 8c'\J	.	.
*clefG2	*	*
=10	=10	=10
*	*^	*
8A'/ 8f'/L	16bb/LL	4gg#\	.
.	16ccc/	.	.
8f'/ 8ddn'/J	16ddd/	.	.
.	16bb/JJ	.	.
8A'/ 8f'/L	16ddd/LL	4gg#\	.
.	16ccc/	.	.
8f'/ 8dd'/J	16bb/	.	.
.	16aa/JJ	.	.
=11	=11	=11	=11
8A'/ 8d#'/L	16bb/LL	4dd#\	.
.	16aa/	.	.
8d#'/ 8cc'/J	16aa/	.	.
.	16gg#/JJ	.	.
8A'/ 8e'/L	4ee^/	4ee^\	.
8e'/ 8cc'/J	.	.	.
=12	=12	=12	=12
8A'/ 8f'/L	16bb/LL	4gg#\	.
.	16ccc/	.	.
8f'/ 8ddn'/J	16ddd/	.	.
.	16bb/JJ	.	.
*	*v	*v	*
.	dddq/	.
*	*^	*
8A'/ 8f'/L	8ccc'/L	4gg#\	.
8f'/ 8dd'/J	16bb/L	.	.
.	16bb/JJ	.	.
*	*v	*v	*
=13	=13	=13
8A'/ 8d#'/L	8dd#\ 8aa\	.
8e'/ 8cc'/J	8r	.
8A'/ 8e'/L	4ee\ 4aa\	.
8e'/ 8cc'/J	.	.
=14	=14	=14
2r	2r	.
*clefF4	*	*
=15	=15	=15
*^	*^	*
4c^/	[2D\	8a^/L	4f#\	f
.	.	8ee/J	.	.
4c#^/	.	8ee^/L	4g\ 4b\	.
.	.	16ee/L	.	.
.	.	16ff#/JJ	.	.
=16	=16	=16	=16	=16
4cn^/	2D\_	8ee^/L	4f#^\ 4a^\	>
.	.	16dd/L	.	.
.	.	16cc/JJ	.	.
4c#^/	.	4b^/	4g\	.
=17	=17	=17	=17	=17
4cn^/	2D\_	8cc^/L	4f#\	.
.	.	16b/L	.	.
.	.	16a/JJ	.	.
4c#^/	.	8b^/L	4g\	.
.	.	16a/L	.	.
.	.	16g#/JJ	.	.
=18	=18	=18	=18	=18
4cn^/	2D\]	4a^/	8e\L	.
.	.	.	8f#\J	.
4c#^/	.	4a^/	4gn\	.
*v	*v	*	*	*
*clefG2	*	*	*
=19	=19	=19	=19
*^	*	*	*
4ccn/	[2d\	8aa/L	4ff#\	p
.	.	8eee/J	.	.
4cc#/	.	8eee/L	4gg\ 4bb\	.
.	.	16eee/L	.	.
.	.	16fff#/JJ	.	.
=20	=20	=20	=20	=20
4ccn/	2d\_	8eee/L	4ff#\ 4aa\	.
.	.	16ddd/L	.	.
.	.	16ccc/JJ	.	.
4cc#/	.	4bb/	4gg\	.
=21	=21	=21	=21	=21
4ccn/	2d\_	8ccc/L	4ff#\	.
.	.	16bb/L	.	.
.	.	16aa/JJ	.	>
4cc#/	.	8bb/L	4gg\	.
.	.	16aa/L	.	.
.	.	16gg#/JJ	.	.
=22	=22	=22	=22	=22
4ccn/	2d\]	4aa/	8ee\L	.
.	.	.	8ff#\J	.
4cc#/	.	4aa/	4ggn\	.
*v	*v	*	*	*
*	*v	*v	*
=23	=23	=23
2r	2r	.
*clefF4	*	*
=24	=24	=24
*^	*^	*
2c/	2A\	4ee/	2f#\	p
.	.	16dd/LL	.	.
.	.	16cc/	.	.
.	.	16b/	.	.
.	.	16cc/JJ	.	.
=25	=25	=25	=25	=25
2c/	4G\	4.a/	2d#\	.
.	4F#\	.	.	.
.	.	16b/LL	.	.
.	.	16cc/JJ	.	.
*v	*v	*	*	*
=26	=26	=26	=26
4Fn\ 4c\	8a/L	4d#\	<
.	16b/L	.	.
.	16cc/JJ	.	.
4E\ 4c\	8a/L	4e\	.
.	16b/L	.	.
.	16cc/JJ	.	.
=27	=27	=27	=27
*^	*	*	*
8F/	8E-\L	4a/	4c\	f
4.F#/	8D\	.	.	.
.	8C#\	16b/LL	8c#\L	>
.	.	16a/	.	.
.	8Cn\J	16g#/	8dn\J	.
.	.	16a/JJ	.	.
=28	=28	=28	=28	=28
[8A/	[8BB\	(8d#/ [8b/	8gn\	p
4A/]	4BB\]	4d#/ 4b/]	4f#\)	.
8r	8r	8r	8r	.
*v	*v	*	*	*
*clefG2	*	*	*
=29	=29	=29	=29
*^	*	*	*
2ccn/	2a\	4eee/	2ff#\	pp
.	.	16ddd/LL	.	.
.	.	16ccc/	.	.
.	.	16bb/	.	.
.	.	16ccc/JJ	.	.
=30	=30	=30	=30	=30
2cc/	4g\	4.aa/	2dd#\	.
.	4f#\	.	.	.
.	.	16bb/LL	.	.
.	.	16ccc/JJ	.	<
*v	*v	*	*	*
=31	=31	=31	=31
4fn/ 4cc/	8aa/L	4dd#\	.
.	16bb/L	.	.
.	16ccc/JJ	.	.
4e/ 4cc/	8aa/L	4ee\	.
.	16bb/L	.	.
.	16ccc/JJ	.	.
=32	=32	=32	=32
*^	*	*	*
8f/	8e-\L	4aa/	4cc\	f
4.f#/	8d\	.	.	.
*	*	*v	*v	*
*	*	*^	*
.	8c#\	16bb/LL	8cc#\L	.
.	.	16aa/	.	.
.	8cn\J	16gg#/	8ddn\J	.
.	.	16aa/JJ	.	.
*v	*v	*	*	*
=33	=33	=33	=33
[8B/ [8a/	8ggn/	[8dd#\ [8bb\	p
4B/] 4a/]	4ff#/	4dd#\] 4bb\]	.
8r	8r	8r	.
*clefF4	*	*	*
=34	=34	=34	=34
[8BB\ [8G\	[8c#/ [8b/	8f#\	pp
4BB\] 4G\]	4c#/] 4b/]	4e\	.
8r	8r	8r	.
*clefG2	*v	*v	*
=35	=35	=35
2B;/ 2f#;/	2b;\ 2dd#;\ 2bb;\	ppp
==	==	==
*-	*-	*-
!!!ENC: Craig Stuart Sapp
!!!END: 2008/07/15/
